gr/system.svg

<svg xmlns="http://www.w3.org/2000/svg" viewBox="0 0 24 24" height="1em" width="1em">
  <path fill="none" stroke="#000" stroke-width="2" d="M1 19h22V1H1v18Zm4 4h14H5Zm3 0h8v-4H8v4ZM7.757 5.757l2.122 2.122-2.122-2.122ZM9 10H6h3Zm.879 2.121-2.122 2.122 2.122-2.122ZM12 13v3-3Zm2.121-.879 2.122 2.122-2.122-2.122ZM18 10h-3 3Zm-1.757-4.243-2.122 2.122 2.122-2.122ZM12 7V4v3Zm0 0a3 3 0 1 0 0 6 3 3 0 0 0 0-6Z"/>
</svg>

<svg xmlns="http://www.w3.org/2000/svg" viewBox="0 0 24 24" height="1em" width="1em">
  <path fill="none" stroke="#000" stroke-width="2" d="M1,19 L23,19 L23,1 L1,1 L1,19 Z M5,23 L19,23 L5,23 Z M8,23 L16,23 L16,19 L8,19 L8,23 Z M7.757,5.757 L9.879,7.879 L7.757,5.757 Z M9,10 L6,10 L9,10 Z M9.879,12.121 L7.757,14.243 L9.879,12.121 Z M12,13 L12,16 L12,13 Z M14.121,12.121 L16.243,14.243 L14.121,12.121 Z M18,10 L15,10 L18,10 Z M16.243,5.757 L14.121,7.879 L16.243,5.757 Z M12,7 L12,4 L12,7 Z M12,7 C10.343,7 9,8.343 9,10 C9,11.657 10.343,13 12,13 C13.657,13 15,11.657 15,10 C15,8.343 13.657,7 12,7 L12,7 Z"/>
</svg>
